**kern	**kern
*	*^
*clefF4	*clefG2	*clefG2
*k[b-]	*k[b-]	*k[b-]
*M9/8	*M9/8	*M9/8
.	.	.
4.B	4.dd 4.ff	4a-
.	.	8g
4.B	8r	8r
.	4dd 4ff	8a-L
.	.	8gJ
4.c	8r	8r
.	4cc 4ee-	8a-L
.	.	8gJ
=	=	=
4.F	8r	8r
.	8ee-L	4f 4a-
.	8dd-J	.
4.F#	8r	8r
.	8dd-L	4e- 4a
.	8ccJ	.
4.G	8r	8r
.	8ccL	4d 4f
.	8bJ	.
=	=	=
*^	*	*
8CCL	2.CC[	4cc	4e
8C	.	.	.
8CJ	.	8r	8r
8CL	.	4.r	4r
8C	.	.	.
8CJ	.	.	8r
8CL	4.CC]	4.r	4ee
8C	.	.	.
8CJ	.	.	16ddL
.	.	.	16ccJ
=	=	=	=
4d	8CL	8fL 8ccL	4r
.	8C	8b	.
16cL	8CJ	16aL	8f
16BJ	.	16gJ	.
4B	8CL	4.g[	4.f[
.	8C	.	.
16AL	8CJ	.	.
16GJ	.	.	.
8.GL	8CL	8gL]	4.f]
.	8C	8a	.
16FL	.	.	.
16E	8CJ	8bJ	.
16FJ	.	.	.
*	*	*v	*v
=	=	=
4E	8CL	8ccL
.	8C	16ccL
.	.	16dd
8r	8CJ	16ee
.	.	16ffJ
.	.	eeq
4.r	8CL	4.gg
.	8C	.
.	8CJ	.
4.r	8CL	16ff#L
.	.	16gg
.	8C	16aa
.	.	16gg
.	8CJ	16ff
.	.	16eeJ
=	=	=
*	*	*^
4.r	8CL	8eeL	4f 4a
.	8C	8dd	.
.	8CJ	16ccL	16eL 16gL
.	.	16b-J	16dJ 16fJ
4r	8CL	4b-	4d 4f
.	8C	.	.
16cL	8CJ	16aL	8f
16BJ	.	16gJ	.
16BL	8CL	8gL	4.f
16A	.	.	.
16G	8C	8a	.
16F	.	.	.
16E	8CJ	8b-J	.
16DJ	.	.	.
*v	*v	*	*
*	*v	*v
=	=

8CL 8EL 8GL	4r
8C 8E 8G	.
8CJ 8EJ 8GJ	8r
8CL 8EL 8GL	4r
8C 8E 8G	.
8CJ 8EJ 8GJ	8r
8CL 8EL 8GL	8eL
.	fq
8C 8E 8G	16eL
.	16d
8CJ 8EJ 8GJ	16e
.	16fJ
=	=
8CL 8EL 8GL	4.f#
8C 8E 8G	.
8CJ 8EJ 8GJ	.
8CL 8EL 8GL	4.g[
8C 8E 8G	.
8CJ 8EJ 8GJ	.
8CL 8EL 8GL	8gL]
.	aq
8C 8E 8G	16gL
.	16f#
8CJ 8EJ 8GJ	16g
.	16g#J
=	=
8BBL 8FL 8GL	4g#
8BB 8F 8G	.
8BBJ 8FJ 8GJ	16.bL
.	32aJk
8BBL 8FL 8GL	4.d[
8BB 8F 8G	.
8BBJ 8FJ 8GJ	.
8BBL 8FL 8GL	8dL]
.	eq
8BB 8F 8G	16dL
.	16c#
8BBJ 8FJ 8GJ	16d
.	16eJ
=	=
8BBL 8DL 8FL 8GL	4.f[
8BB 8D 8F 8G	.
8BBJ 8DJ 8FJ 8GJ	.
8BBL 8DL 8FL 8GL	16fL]
.	16e
8BB 8D 8F 8G	16d
.	16c#
8BBJ 8DJ 8FJ 8GJ	16d
.	16eJ
8BBL 8DL 8FL 8GL	16fL
.	16g
8BB 8D 8F 8G	16a
.	16g#
8BBJ 8DJ 8FJ 8GJ	16a
.	16fJ
=	=
8CL 8FL 8GL	4.d#
8C 8F 8G	.
8CJ 8FJ 8GJ	.
8CL 8EL 8GL	4.e[
8C 8E 8G	.
8CJ 8EJ 8GJ	.
8CL	16eL]
.	16c
8GG	16e
.	16g
8FFJ	16cc
.	16eeJ
=	=
8EEL	4.gg[
8EE 8GG 8C	.
8EEJ 8GGJ 8CJ	.
8EEL 8GGL 8CL	8ggL]
8EE 8GG 8C	8ee
8EEJ 8GGJ 8CJ	8ccJ
8EEL 8GGL 8CL	8gL
8EE 8GG 8C	8e
8EEJ 8GGJ 8CJ	8cJ
=	=
*	*^
.	.	.
4.c	4.ee- 4.gg-	4b--
.	.	8a-
4.c	8r	8r
.	4ee- 4gg-	8b--L
.	.	8a-J
4.d-	8r	8r
.	4dd- 4ff-	8b--L
.	.	8a-J
=	=	=
4.G-	8r	8r
.	8ff-L	4g- 4b--
.	8ee--J	.
4.G	8r	8r
.	8ee--L	4f- 4b-
.	8dd-J	.
4.A-	8r	8r
.	8dd-L	4e- 4g-
.	8ccJ	.
=	=	=
*^	*	*
8DD-L	2.DD-[	4dd-	4f
8D-	.	.	.
8D-J	.	8r	8r
8D-L	.	4.r	4r
8D-	.	.	.
8D-J	.	.	8r
8D-L	4.DD-]	4.r	4ff
8D-	.	.	.
8D-J	.	.	16ee-L
.	.	.	16dd-J
=	=	=	=
4e-	8D-L	8g-L 8dd-L	4r
.	8D-	8cc	.
16d-L	8D-J	16b-L	8g-
16cJ	.	16a-J	.
4c	8D-L	4.a-[	4.g-[
.	8D-	.	.
16B-L	8D-J	.	.
16A-J	.	.	.
8.A-L	8D-L	8a-L]	4.g-]
.	8D-	8b-	.
16G-L	.	.	.
16F	8D-J	8ccJ	.
16G-J	.	.	.
*	*	*v	*v
=	=	=
4F	8D-L	8dd-L
.	8D-	16dd-L
.	.	16ee-
8r	8D-J	16ff
.	.	16gg-J
.	.	ffq
4.r	8D-L	4.aa-
.	8D-	.
.	8D-J	.
4.r	8D-L	16ggL
.	.	16aa-
.	8D-	16bb-
.	.	16aa-
.	8D-J	16gg-
.	.	16ffJ
=	=	=
*	*	*^
4.r	8D-L	8ffL	4g- 4b-
.	8D-	8ee-	.
.	8D-J	16dd-L	16fL 16a-L
.	.	16cc-J	16e-J 16g-J
4r	8D-L	4cc-	4e- 4g-
.	8D-	.	.
16d-L	8D-J	16b-L	8g-
16cJ	.	16a-J	.
16cL	8D-L	8a-L	4.g-
16B-	.	.	.
16A-	8D-	8b-	.
16G-	.	.	.
16F	8D-J	8cc-J	.
16E-J	.	.	.
*v	*v	*	*
*	*v	*v
=	=
*	*^
.	.	.
*^	*	*
8B-L	2.E-	4.f-[ 4.g[	8d-L
8A	.	.	8c
8B-J	.	.	8d-J
8B-L	.	4f-] 4g]	8d-L
8A	.	.	8c
8B-J	.	8f- 8g	8d-J
8B-L	4.E-	8f-L 8gL	8d-L
8c	.	8a-	8e-
8GJ	.	8b-J	8e-J
*v	*v	*	*
*clefF4	*	*
=	=	=
4.A-	4.cc	8e-L
.	.	8e-
.	.	8eJ
4.D-	4.b-	8r
.	.	8eL
.	.	8fJ
4.D	4.a-	8r
.	.	8fL
.	.	8B-J
=	=	=
*^	*	*
8EE-L	2.EE-[	4g	4B-
8E-	.	.	.
8E-J	.	8r	8r
8E-L	.	8r	4e-
8E-	.	8fL	.
8E-J	.	8gJ	8d-
8E-L	4.EE-]	4a-	8cL
8E-	.	.	8B-
8E-J	.	8d	8A-J
=	=	=	=
8EE-L	2.EE-[	8fL	4G
8E-	.	8e-J	.
8E-J	.	8r	8r
8E-L	.	8gL	4e-
8E-	.	8f	.
8E-J	.	8gJ	8d-
8E-L	4.EE-]	8b-L	8cL
8E-	.	8a-	8B-
8E-J	.	8dJ	8A-J
=	=	=	=
*	*^	*	*
8EE-	8r	4.EE-	8e-	8G
4E-[	16E-L	.	16r	16r
.	16GG	.	16b-L	16d-L
.	16AA-	.	16a-	16c
.	16C-J	.	16dJ	16A-J
8BB-] 8E-]	8r	4.EE-	8e-	8G
4E-[	16E-L	.	16r	16r
.	16GG	.	16b-L	16d-L
.	16AA-	.	16a-	16c
.	16FFJ	.	16dJ	16A-J
8E-]	8r	4.EE-	8e-	8G
4E-	16E-L	.	16r	16r
.	16GG	.	16b-L	16d-L
.	16AA-	.	16a-	16c
.	16C-XJ	.	16dJ	16A-J
*	*v	*v	*	*
*v	*v	*	*
*	*v	*v
=	=
*^	*
2.r	16DD-L 16D-L	16F-L 16A-L
.	16D-	16F- 16B--
.	16D-	16F- 16B--
.	16D-	16F- 16B--
.	16D-	16F- 16B--
.	16D-J	16F-J 16B--J
.	16D-L 16F-L 16B--L	16ff-L
.	16D- 16F- 16B--	16dd-
.	16D- 16F- 16B--	16b--
.	16D- 16F- 16B--	16b--
.	16D- 16F- 16B--	16b--
.	16D-J 16F-J 16B--J	16b--J
16E-L 16A-L	16C-L	4.r
16E- 16A-	16C-	.
16E- 16A-	16C-	.
16E- 16A-	16C-	.
16E- 16A-	16C-	.
16E-J 16A-J	16C-J	.
=	=	=
16D-L 16GL	16BBB-L 16BB-L	4.r
16D- 16G	16BB-	.
16D- 16G	16BB-	.
16D- 16G	16BB-	.
16D- 16G	16BB-	.
16D-J 16GJ	16BB-J	.
4.r	16BB-L 16D-L 16GL	16dd-L
.	16BB- 16D- 16G	16b-
.	16BB- 16D- 16G	16g
.	16BB- 16D- 16G	16g
.	16BB- 16D- 16G	16g
.	16BB-J 16D-J 16GJ	16gJ
16C-L 16F-L	16AA-L	4.r
16C- 16F-	16AA-	.
16C- 16F-	16AA-	.
16C- 16F-	16AA-	.
16C- 16F-	16AA-	.
16C-J 16F-J	16AA-J	.
=	=	=
16BB-L 16E-L	16GGGL 16GGL	4.r
16BB- 16E-	16GG	.
16BB- 16E-	16GG	.
16BB- 16E-	16GG	.
16BB- 16E-	16GG	.
16BB-J 16E-J	16GGJ	.
2.r	16GGL 16BB-L 16E-L	16bb-L
.	16GG 16BB- 16E-	16gg
.	16GG 16BB- 16E-	16dd-
.	16GG 16BB- 16E-	16dd-
.	16GG 16BB- 16E-	16dd-
.	16GGJ 16BB-J 16E-J	16dd-J
.	16AA-L 16C-L 16E-L	16aa-L
.	16AA- 16C- 16E-	16ee-
.	16AA- 16C- 16E-	16cc-
.	16AA- 16C- 16E-	16cc-
.	16AA- 16C- 16E-	16cc-
.	16AA-J 16C-J 16E-J	16cc-J
*v	*v	*
=	=
16DD-L	16ff-L
16D- 16F- 16B--	16dd-
16D- 16F- 16B--	16d- 16f- 16b--
16D- 16F- 16B--	16d- 16f- 16b--
16D- 16F- 16B--	16d- 16f- 16b--
16D-J 16F-J 16B--J	16d-J 16f-J 16b--J
16DD-L	16ff-L
16D- 16F- 16B--	16dd-
16D- 16F- 16B--	16d- 16f- 16b--
16D- 16F- 16B--	16d- 16f- 16b--
16D- 16F- 16B--	16d- 16f- 16b--
16D-J 16F-J 16B--J	16d-J 16f-J 16b--J
16DDL	16ffL
16D 16F 16A-	16cc-
16D 16F 16A-	16c- 16f 16a-
16D 16F 16A-	16c- 16f 16a-
16D 16F 16A-	16c- 16f 16a-
16DJ 16FJ 16A-J	16c-J 16fJ 16a-J
=	=
*	*^
16EE-L	4B- 4e- 4g	4.r
16GG	.	.
16BB-	.	.
16E-	.	.
16G	8r	.
16B-J	.	.
*clefG2	*	*
8e-L	4.dd-[	8r
8d	.	8b-L
8e-J	.	8gJ
4f-	8dd-]	4a-
.	4cc-	.
8d	.	8f
*clefF4	*	*
=	=	=
*	*v	*v
*	*^
.	.	.
4.B-	4.dd	8fL
.	.	8f
.	.	8f#J
4.E-	4.cc	8r
.	.	8f#L
.	.	8gJ
4.E	4.b-	8r
.	.	8gL
.	.	8cJ
=	=	=
*^	*	*
8FFL	2.FF[	4a	4c
8F	.	.	.
8FJ	.	8r	8r
8FL	.	8r	4f
8F	.	8gL	.
8FJ	.	8aJ	8e-
8FL	4.FF]	4b-	8dL
8F	.	.	8c
8FJ	.	8e	8B-J
=	=	=	=
8FFL	2.FF[	8gL	4A
8F	.	8fJ	.
8FJ	.	8r	8r
8FL	.	8aL	4f
8F	.	8g	.
8FJ	.	8aJ	8e-
8FL	4.FF]	8ccL	8dL
8F	.	8b-	8c
8FJ	.	8eJ	8B-J
=	=	=	=
*	*^	*	*
8FF	8r	4.FF	8f	8A
4F[	16FL	.	16r	16r
.	16AA	.	16ccL	16e-L
.	16BB-	.	16b-	16d
.	16D-J	.	16eJ	16B-J
8C] 8F]	8r	4.FF	8f	8A
4F[	16FL	.	16r	16r
.	16AA	.	16ccL	16e-L
.	16BB-	.	16b-	16d
.	16GGJ	.	16eJ	16B-J
8F]	8r	4.FF	8f	8A
4F	16FL	.	16r	16r
.	16AA	.	16ccL	16e-L
.	16BB-	.	16b-	16d
.	16D-XJ	.	16eJ	16B-J
*	*v	*v	*	*
*v	*v	*	*
*	*v	*v
=	=
*-	*-
